X:12028
T:Landlord Fill the Flowing Bowl
T:For Tonight We'll Merry Merry Be
R:March
O:England
Z:Paul Hardy's Session Tunebook 2015 (see www.paulhardy.net). Creative Commons cc by-nc-sa licenced.
M:2/2
L:1/4
Q:1/2=110
K:D
A|"D"dA FA|d>d dd|"A"e>e ee|"D"f2 dA|dA FA|d d/d/ dd|"A"e e/e/ ee|"D"f2 d||
|:A|"D"f>f fa|"A"ag g2|"G"e>e eg|"D"gf f2|d>d df|"G"f e/e/ "Em"ge|"A"cA Bc|"D"d2 d:|

